X: 13748
T: Forge, The
R: jig
M: 6/8
K: Cmajor
|:g|edc BAG|FF/F/F FGA|GFE FGA|GAc deg|
edc BAG|FF/F/F FGA|GFE DCB,|1 CC/C/C C2:|2 CC/C/C CDE||
|:FF/F/F FED|B,2 C2 DE|FA,B, CDE|FGA GFE|
FF/F/F FED|B,2 C2 DE|FED B,CD|CC/C/C C3:|

